!!!COM: Scarlatti, Domenico
!!!CDT: 1685///-1757///
!!!OTL: Sonata in D Major, K.492, L.14
!!!SCT: K. 492
!!!SCT: L. 014
!!!OMD: Presto
**kern	**kern	**dynam
*staff2	*staff1	*staff1/2
*Icemba	*Icemba	*Icemba
*>[A,A,B,B]	*>[A,A,B,B]	*>[A,A,B,B]
*>norep[A,B]	*>norep[A,B]	*>norep[A,B]
*>A	*>A	*>A
*clefG2	*clefG2	*clefG2
*k[f#c#]	*k[f#c#]	*k[f#c#]
*D:	*D:	*D:
*M6/8	*M6/8	*M6/8
*MM156	*MM156	*MM156
=1-	=1-	=1-
(8d/ 8f#/L	4.dd^\	f
8e/) 8g/	.	.
8f#'/ 8a'/J	.	.
4r	8dd'\ 8ff#'\L	.
.	8ee'\ 8gg'\	.
8r	8ff#'\ 8aa'\J	.
=2	=2	=2
(8d/ 8f#/L	4.dd^\	.
8e/) 8g/	.	.
8f#'/ 8a'/J	.	.
4r	8dd'\ 8ff#'\L	.
.	8ee'\ 8gg'\	.
8r	8ff#'\ 8aa'\J	.
=3	=3	=3
*^	*	*
(8g/L	4.G\	(8b\L	.
8f#/	.	8cc#\)	.
8e'/J)	.	8dd'\J	.
(8g/L	4.A\	(8ee\L	.
8f#/	.	8dd\)	.
8e'/J)	.	8cc#'\J	.
*v	*v	*	*
=4	=4	=4
4.d/	(8dd\L	>
.	8ddd\)	)
.	8aa'\J	)
4r	8ff#'\L	)
.	8dd'\	)
8r	8a'\J	]
=5	=5	=5
(8d/ 8f#/L	4.dd^\	p
8e/) 8g/	.	.
8f#'/ 8a'/J	.	.
4r	8dd'\ 8ff#'\L	.
.	8ee'\ 8gg'\	.
8r	8ff#'\ 8aa'\J	.
=6	=6	=6
(8d/ 8f#/L	4.dd^\	.
8e/) 8g/	.	.
8f#'/ 8a'/J	.	.
4r	8dd'\ 8ff#'\L	.
.	8ee'\ 8gg'\	.
8r	8ff#'\ 8aa'\J	.
=7	=7	=7
*^	*	*
(8g/L	4.G\	(8b\L	.
8f#/	.	8cc#\)	.
8e'/J)	.	8dd'\J	.
(8g/L	4.A\	(8ee\L	.
8f#/	.	8dd\)	.
8e'/J)	.	8cc#'\J	.
*v	*v	*	*
=8	=8	=8
4.d^/	(8dd\L	f
.	8ddd\)	>
.	8aa'\J	)
4r	8ff#'/L	)
.	8dd'/	)
8r	8a'/J	]
=9	=9	=9
(8d/L	4dd\ (4ff#\	p
8e/)	.	.
8f#'/J	8cc#\ 8ee\)	.
4.g/	8b'\ 8dd'\L	.
.	8a#'\ 8cc#'\	.
.	8b'\ 8dd'\J	.
=10	=10	=10
(8c#/L	4cc#\ (4ee\	.
8d/)	.	.
8e'/J	8b\ 8dd\)	.
4.f#/	8a#'\ 8cc#'\L	.
.	8b'\	.
.	8a#'\ 8cc#'\J	.
=11	=11	=11
(8d/L	4dd\ (4ff#\	<
8e/)	.	(
8f#'/J	8cc#\ 8ee\)	(
4.g/	8b'\ 8dd'\L	(
.	8a#'\ 8cc#'\	(
.	8b'\ 8dd'\J	(
=12	=12	=12
(8c#/L	4cc#\ (4ee\	(
8d/)	.	(
8e'/J	8b\ 8dd\)	(
4.f#/	8a#'\ 8cc#'\L	(
.	8b'\	(
.	8a#'\ 8cc#'\J	(
=13	=13	=13
(8B/L	4b\ (4dd\	(
8c#/)	.	(
8d'/J	8an\ 8cc#\)	(
4.e/	8g#'/ 8b'/L	(
.	8a'/	(
.	8g#'/ 8b'/J	(
=14	=14	=14
(8c#/L	4cc#\ (4ee\	(
8d/)	.	(
8e'/J	8b\ 8dd\)	(
4.f#/	8a'/ 8cc#'/L	(
.	8g#'/ 8b'/	(
.	8a'/ 8cc#'/J	(
=15	=15	=15
(8B/L	4b\ (4dd\	(
8c#/)	.	(
8d'/J	8a\ 8cc#\)	(
4.e/	8g#'/ 8b'/L	(
.	8a'/	(
.	8g#'/ 8b'/J	(
*clefF4	*	*
=16	=16	=16
(4.A\	8a'/ 8cc#'/L	(
.	8g#'/ 8b'/	(
.	8a'/ 8cc#'/J	(
4.G#\	8b'\ 8dd'\L	(
.	8a'\ 8cc#'\	(
.	8b'\ 8dd'\J	(
=17	=17	=17
*	*^	*
4.A\	8cc#/L	4.a\	(
.	8dd/	.	(
.	8ee/J	.	(
*	*v	*v	*
.	ddq/	(
*	*^	*
4.AA/)	8cc#'/L	4.r	(
.	8b'/	.	(
.	8a'/J	.	[
*	*v	*v	*
=18	=18	=18
16r	[4.g#/ [4.b/	f
(16E\LL	.	.
16F#\	.	.
16G#\	.	.
32A\L	.	.
32B\	.	.
32c#\	.	.
32d\JJJ	.	.
4.e\)	8g#/] 8b/]	.
.	8ee'\L	.
.	8dd'\J	.
=19	=19	=19
4.AA\ 4.A\	8a'/ 8cc#'/L	.
.	8g#'/ 8b'/	.
.	8a'/ 8cc#'/J	.
4DD/ 4D/	8b'/ 8dd'/L	.
.	8a'/ 8cc#'/	.
8EE'/ 8E'/	8g#'/ 8b'/J	.
=20	=20	=20
4.AA\ 4.A\	(8a/L	>
.	8ccn/)	]
.	[8cc'/J	p
.	ddq/	.
4.A\ 4.d\ (4.fn\	(8cc/L]	.
.	8b/)	.
.	8b'/J	.
=21	=21	=21
.	ccnq/	.
4.A\ 4.cn\ 4.e\	8b/L	.
.	8a/	.
.	8a'/J	.
.	bq/	.
4.A\ 4.B\ 4.d\	8a/L	.
.	8g#/	.
.	8g#'/J	.
=22	=22	=22
4.A\ 4.cn\)	8a\L	.
.	8ee\	.
.	8ee'\J	.
.	ffnq/	.
4.A\ 4.f#\ (4.a\	8ee\L	.
.	8dd\	.
.	8dd'\J	.
=23	=23	=23
.	eeq/	.
4.A\ 4.e\ 4.a\	8dd\L	.
.	8ccn\	.
.	[8cc'\J	.
.	ddq/	.
4.A\ 4.d\ 4.fn\	8cc\L]	.
.	8b\	.
.	8b'\J	<
=24	=24	=24
.	ccnq/	(
4.A\ 4.cn\ 4.e\)	8b/L	(
.	8a/	(
.	[8a'/J	(
.	bq/	(
4.B\ (4.d\	8a/L]	(
.	8g/	(
.	8g'/J	(
=25	=25	=25
.	aq/	(
*	*^	*
4A\ 4cn\	8g'/L	4.r	(
.	8fn'/	.	(
8G\ 8B\)	8e'/J	.	(
4.Fn\ 4.A\	4.a/	8d\L	(
.	.	8cn\	(
.	.	8d\J	(
*	*v	*v	*
=26	=26	=26
(8E\L	8e'/ 8g#'/	(
16A\L	8r	(
16B\J)	.	(
8e'\J	8r	(
(8Fn\L	4r	(
16A\L	.	(
16B\J	.	(
8d'\ 8b'\J)	8r	(
=27	=27	=27
(8E\L	4r	(
16A\L	.	(
16B\J	.	(
8e'\J)	8r	(
(8Fn\L	4r	(
16A\L	.	(
16B\J	.	(
8d'\ 8b'\J)	8r	(
=28	=28	=28
(8E\L	4r	(
16A\L	.	(
16B\J	.	(
8e'\J)	8r	(
(8Fn\L	4r	(
16A\L	.	(
16B\J	.	(
8d'\ 8b'\J)	8r	(
=29	=29	=29
(16E\LL	4r	(
16A\	.	(
16B\	.	(
16e\J	.	[
8G#'\J)	8bb\	f
4.A\	(8cccn\L	.
.	8aa\)	.
.	8ee'\J	.
=30	=30	=30
(4.DD/ 4.D/	(8ffn\L	.
.	8dd\)	.
.	([8b\J	.
4.EE/) 4.E/	8b/L]	.
.	8a/)	.
.	8g#'/J	.
=31	=31	=31
.	(g#q/	.
(8Fn\L	8a/)	f
16A\L	8r	.
16B\J	.	.
8d'\J)	8r	.
(8D\L	4r	.
16A\L	.	.
16B\J	.	.
8d'\ 8b'\J)	8r	.
=32	=32	=32
(8E\L	4r	.
16A\L	.	.
16B\J	.	.
8e'\J)	8r	.
(8Fn\L	4r	.
16A\L	.	.
16B\J	.	.
8d'\ 8b'\J)	8r	.
=33	=33	=33
(8E\L	4r	.
16A\L	.	.
16B\J	.	.
8e'\J)	8r	.
(8Fn\L	4r	.
16A\L	.	.
16B\J	.	.
8d'\ 8b'\J)	8r	.
=34	=34	=34
(16E\LL	4r	.
16A\	.	.
16B\	.	.
16e\J	.	.
8G#'\J)	8bb\	f
4.A\	(8cccn\L	.
.	8aa\)	.
.	8ee'\J	.
=35	=35	=35
(4.DD/ 4.D/	(8ffn\L	.
.	8dd\)	.
.	([8b\J	.
4.EE/) 4.E/	8b/L]	.
.	8a/)	.
.	8g#'/J	.
=36	=36	=36
16r	([4.aa\	f
16AA\LL	.	.
16BB\	.	.
16C#\	.	.
32D\L	.	.
32E\	.	.
32F#\	.	.
32G#\JJJ	.	.
4.A\	16aa\LL]	.
.	16gg#\	.
.	16ff#\	.
.	16ee\	.
.	32dd\L	.
.	32cc#\	.
.	32b\	.
.	32a\JJJ	.
=37	=37	=37
16r	([4.ff#\)	.
16D\LL	.	.
16E\	.	.
16F#\	.	.
32G#\L	.	.
32A\	.	.
32B\	.	.
32c#\JJJ	.	.
4.d\	16ff#\LL]	.
.	16ee\	.
.	16dd\	.
.	16cc#\	.
.	32b\L	.
.	32a\	.
.	32g#\	.
.	32f#\JJJ	.
=38	=38	=38
16r	([4.ee\)	.
16AA\LL	.	.
16BB\	.	.
16C#\	.	.
32D\L	.	.
32E\	.	.
32F#\	.	.
32G#\JJJ	.	.
4.A\	16ee\LL]	.
.	16dd\	.
.	16cc#\	.
.	16b\	.
.	32a\L	.
.	32g#\	.
.	32f#\	.
.	32e\JJJ	.
=39	=39	=39
*	*^	*
(4.DD/ 4.D/	8dd/L	(4.f#\)	.
.	8cc#/	.	.
.	8b/J	.	.
4.EE/) 4.E/	8a/L	4.e\)	.
.	8b/	.	.
.	8g#'/J	.	.
*	*v	*v	*
=40	=40	=40
16r	([4.aa\	p
16AA\LL	.	.
16BB\	.	.
16C#\	.	.
32D\L	.	.
32E\	.	.
32F#\	.	.
32G#\JJJ	.	.
4.A\	16aa\LL]	.
.	16gg#\	.
.	16ff#\	.
.	16ee\	.
.	32dd\L	.
.	32cc#\	.
.	32b\	.
.	32a\JJJ	.
=41	=41	=41
16r	([4.ff#\)	.
16D\LL	.	.
16E\	.	.
16F#\	.	.
32G#\L	.	.
32A\	.	.
32B\	.	.
32c#\JJJ	.	.
4.d\	16ff#\LL]	.
.	16ee\	.
.	16dd\	.
.	16cc#\	.
.	32b\L	.
.	32a\	.
.	32g#\	.
.	32f#\JJJ	.
=42	=42	=42
16r	([4.ee\)	.
16AA\LL	.	.
16BB\	.	.
16C#\	.	.
32D\L	.	.
32E\	.	.
32F#\	.	.
32G#\JJJ	.	.
4.A\	16ee\LL]	.
.	16dd\	.
.	16cc#\	.
.	16b\	.
.	32a\L	.
.	32g#\	.
.	32f#\	.
.	32e\JJJ	.
=43	=43	=43
*	*^	*
(4.DD/ 4.D/	8dd/L	(4.f#\)	.
.	8cc#/	.	.
.	8b/J	.	.
4.EE/) 4.E/	8a/L	4.e\)	.
.	8b/	.	.
.	8g#'/J	.	.
*	*v	*v	*
=44	=44	=44
[4.AA/	(8a\L	f
.	8aa\)	.
.	8ee'\J	.
8AA/L]	8cc#'/L	.
8C#'/	8a'/	.
8E'/J	8e'/J	.
=45	=45	=45
8A'\	8c#'/	.
[4AA^/	8aa'\L	.
.	8ee'\J	.
8AA/L]	8cc#'/L	.
8C#'/	8a'/	.
8E'/J	8e'/J	.
=46	=46	=46
4.AA/	8A'/ 8c#'/L	.
.	8G#'/ 8B'/	.
.	8A'/ 8c#'/J	.
4DD/ 4D/	(8B/ 8d/L	.
.	8A/) 8c#/	.
8EE'/ 8E'/	8G#'/J	.
=47	=47	=47
4.AAA/ 4.AA/	8A/	.
.	8dd'\L	.
.	8ee'\J	.
4.DD/ 4.D/	(8ff#\L	.
.	8cc#\)	.
.	8dd'\J	.
=48	=48	=48
4CC#/ 4C#/	(8ee\L	.
.	8a\)	.
8DD'/ 8D'/	8cc#'\ 8ee'\J	.
4EE/ 4E/	8b'\ 8dd'\L	.
.	8a'\ 8cc#'\	.
8EE'/	8g#'\ 8b'\J	.
=49	=49	=49
4.AAA/ 4.AA/	(8a/L	.
.	8g#/)	.
.	8a'/J	.
4.DD/ 4.D/	(8b/L	.
.	8f#/)	.
.	8g#'/J	.
=50	=50	=50
*	*^	*
4CC#/ 4C#/	[4.a^/	8r	.
.	.	(8e\L	.
8DD'/ 8D'/	.	8f#\J	.
4EE/ 4E/	4a/]	8c#\L	.
.	.	8d\)	.
8DD'/ 8D'/	8g#'/	8B'\J	.
=51	=51	=51	=51
4CC#/ 4C#/	[4.a^/	8r	.
.	.	(8e\L	.
8DD'/ 8D'/	.	8f#\J	.
4EE/ 4E/	4a/]	8c#\L	.
.	.	8d\)	.
8DD'/ 8D'/	8g#'/	8B\J	.
=52	=52	=52	=52
4CC#/ 4C#/	[4.a^/	8r	.
.	.	(8e\L	.
8DD'/ 8D'/	.	8f#\J	.
4EE/ 4E/	4a/]	8c#\L	.
.	.	8d\)	.
8EE'/ 8E'/	8g#'/	8B'\J	.
*	*v	*v	*
=53	=53	=53
2.AAA^/ 2.AA^/	2.A^/ 2.a^/	.
=54:|!|:	=54:|!|:	=54:|!|:
*>B	*>B	*>B
*^	*^	*
4.r	2.A\	8r	4r	.
.	.	8a'/	.	f
.	.	(8a/	[8a^\	.
8r	.	4.b/)	8a\]	.
8gn/L	.	.	4r	.
([8g/J	.	.	.	.
*	*	*v	*v	*
=55	=55	=55	=55
4g/]	2.A\	8cc#\L	.
.	.	8a\	.
8f#/	.	8dd'\J	.
4e/	.	8ee\L	.
.	.	8cc#\	.
8d/	.	8ff#'\J	.
=56	=56	=56	=56
*	*	*^	*
4.r	2.A\)	8ee/L	4r	.
.	.	8a/	.	p
.	.	[8a/J	8a^\	.
8r	.	4.b/	8a\]	.
8g/L	.	.	4r	.
([8g/J	.	.	.	.
*	*	*v	*v	*
=57	=57	=57	=57
4g/]	2.A\	8cc#\L	.
.	.	8a\	.
8f#/	.	8dd'\J	.
4e/	.	8ee\L	.
.	.	8cc#\	.
8d/	.	8ff#'\J	.
*v	*v	*	*
=58	=58	=58
4.A\)	8ee\L	.
.	8dd#\	.
.	8dd#'\J	.
*clefG2	*	*
(4.a/ 4.ccn/	8ee\L	.
.	8dd#\	.
.	8dd#'\J	.
=59	=59	=59
4.g/ 4.b/	8ee\L	.
.	8dd#\	.
.	8dd#'\J	.
4.a/ 4.ccn/	8ee\L	.
.	8dd#\	.
.	8dd#'\J	.
=60	=60	=60
4.g/ 4.b/	8ee\L	.
.	8dd#\	.
.	8ee'\J	.
4.f#/ 4.a/	8ff#\L	.
.	8gg\	.
.	8aa'\J	.
=61	=61	=61
4.e/) 4.g/	8gg'\L	.
.	8gg\	.
.	8ff#\J	.
4r	8ee\L	.
.	8dd\	.
8r	8cc#'\J	.
=62	=62	=62
4.e/ 4.g/	(8b/L	.
.	8a#/)	.
.	8a#'/J	.
(4.e/ 4.g/	(8b/L	.
.	8a#/)	.
.	8a#'/J	.
=63	=63	=63
4.d/ 4.f#/	8b/L	.
.	8a#/	.
.	8a#'/J	.
4.e/ 4.g/	8b/L	.
.	8a#/	.
.	8a#'/J	.
=64	=64	=64
4.d/) 4.f#/	8b\L	mf
.	8ff#\	.
.	8ee'\J	.
4r	8dd\L	.
.	8cc#\	.
8r	8b'\J	.
=65	=65	=65
4.d/ 4.fn/	(8a/L	.
.	8g#/)	.
.	8g#'/J	.
(4.d/ 4.f/	(8a/L	.
.	8g#/)	.
.	8g#'/J	.
=66	=66	=66
4.cn/ 4.e/	8a/L	.
.	8g#/	.
.	8g#'/J	.
4.d/ 4.fn/	8a/L	.
.	8g#/	.
.	8g#'/J	.
=67	=67	=67
4.cn/) 4.e/	8a\L	mf
.	8ee\	>
.	8dd'\J	)
4r	8ccn\L	)
.	8b\	)
8r	8a'\J	)
=68	=68	=68
4.cn/ 4.e-/	(8g/L	)
.	8f#/)	)
.	8f#'/J	)
(4.c/ 4.e-/	(8g/L	)
.	8f#/)	)
.	8f#'/J	)
=69	=69	=69
4.B/ 4.d/	8g/L	)
.	8f#/	)
.	8f#'/J	)
4.cn/ 4.e-/	8g/L	)
.	8f#/	)
.	8f#'/J	]
=70	=70	=70
4.B/) 4.d/	8g\L	mf
.	8dd\	>
.	8ccn'\J	)
4r	8b'/L	)
.	8a'/	)
8r	8g'/J	]
*clefF4	*	*
=71	=71	=71
4AA\ 4A\	(8cc#\L	<
.	8a\)	(
8F#'\ 8d'\	8dd'\J	(
4E\ 4c#\	(8ee\L	(
.	8a\)	(
8D'\ 8d'\	8ff#'\J	(
=72	=72	=72
4AA\ 4A\	(8ee\L	(
.	8a\)	(
8F#'\ 8d'\	8dd'\J	(
4E\ 4c#\	(8ee\L	(
.	8a\)	(
8D'\ 8d'\	8ff#'\J	[
=73	=73	=73
16r	4.ee^\	f
(16AA\LL	.	.
16BB\	.	.
16C#\	.	.
32D\L	.	.
32E\	.	.
32F#\	.	.
32G#\JJJ	.	.
4.A\)	8r	.
.	8aa'\L	.
.	8ggn'\J	.
=74	=74	=74
4.DD/ 4.F#/	8dd'\ 8ff#'\L	.
.	8cc#'\ 8ee'\	.
.	8dd'\ 8ff#'\J	.
4GG/ 4G/	8ee\ (8gg\L	.
.	8dd\ 8ff#\)	.
8AA'/ 8A'/	8cc#'\ 8ee'\J	.
=75	=75	=75
4.DD/ 4.F#/	(8dd\L	>
.	8ffn\)	)
.	8ff'\J	)
.	(ggq/	]
*clefG2	*	*
4.d/ 4.g/ (4.b-/	(8ff\L)	p
.	8ee\)	.
.	8ee'\J	.
=76	=76	=76
.	ffnq/	.
4.d/ 4.fn/ 4.a/	8ee\L	.
.	8dd\	.
.	8dd'\J	.
.	eeq/	.
4.d/ 4.e/ 4.g/	8dd\L	.
.	8cc#\	.
.	8cc#'\J	.
=77	=77	=77
4.d/ 4.fn/)	8dd\L	.
.	8aa\	.
.	8aa'\J	.
.	bb-q/	.
4.d/ 4.b-/ (4.dd/	8aa\L	.
.	8gg\	.
.	8gg'\J	.
=78	=78	=78
.	aaq/	.
4.d/ 4.a/ 4.dd/	8gg\L	.
.	8ffn\	.
.	8ff'\J	.
.	ggq/	.
4.d/ 4.g/ 4.b-/	8ff\L	.
.	8ee\	.
.	8ee'\J	.
=79	=79	=79
.	ffnq/	.
4.d/ 4.fn/ 4.a/)	8ee\L	<
.	8dd\	(
.	8dd'\J	(
.	eeq/	(
(4.e/ 4.g/	8dd\L	(
.	8ccn\	(
.	8cc'\J	(
=80	=80	=80
*	*^	*
.	4.r	ddq/	(
*	*v	*v	*
4d/ 4fn/	8ccn'\L	(
*	*^	*
.	.	8b-'\	(
8cn/ 8e/	.	8a'\J	(
4.B-/) 4.d/	4.dd/	8g\L	(
.	.	8fn\	(
.	.	8g\J	[
*	*v	*v	*
*clefF4	*	*
=81	=81	=81
(8A\L	4a'/ 4cc#'/	p
16d\L	.	.
16e\J	.	.
8g'\J)	8r	.
(8B\L	4r	.
16d\L	.	.
16e\J	.	.
8g'\ 8ee'\J)	8r	.
=82	=82	=82
(8A\L	4r	.
16d\L	.	.
16e\J	.	.
8g'\J)	8r	.
(8B-\L	4r	.
16d\L	.	.
16e\J	.	.
8g'\ 8ee'\J)	8r	.
=83	=83	=83
(8A\L	4r	.
16d\L	.	.
16e\J	.	.
8g'\J)	8r	.
(8B-\L	4r	.
16d\L	.	.
16e\J	.	.
8g'\ 8ee'\J)	8r	.
=84	=84	=84
(16A\LL	4r	.
16d\	.	.
16e\	.	.
16g\J	.	.
8c#'\J)	8gg'\	f
4.d^\	(8ffn\L	.
.	8dd\)	.
.	8aa'\J	.
=85	=85	=85
(4.GG/ 4.G/	(8bb\L	.
.	8gg\)	.
.	([8ee\J	.
4.AA/) 4.A/	8ee\L]	.
.	8dd\)	.
.	8cc#'\J	.
=86	=86	=86
.	(cc#q/	.
(8B-\L	8dd\)	p
16d\L	8r	.
16e\J	.	.
8g'\J)	8r	.
(8G\L	4r	.
16d\L	.	.
16e\J	.	.
8g\ 8ee\J)	8r	.
=87	=87	=87
(8A\L	4r	.
16d\L	.	.
16e\J	.	.
8g'\J)	8r	.
(8B-\L	4r	.
16d\L	.	.
16e\J	.	.
8g'\ 8ee'\J)	8r	.
=88	=88	=88
(8A\L	4r	.
16d\L	.	.
16e\J	.	.
8g'\J)	8r	.
(8B-\L	4r	.
16d\L	.	.
16e\J	.	.
8g'\ 8ee'\J)	8r	.
=89	=89	=89
(8A\L	4r	.
16d\L	.	.
16e\J	.	.
8g'\J)	8ccc#\	f
4.d^\	(8ddd\L	.
.	8aa\)	.
.	8ffn'\J	.
=90	=90	=90
(4.GG/ 4.G/	(8bb-\L	.
.	8gg\)	.
.	([8ee\J	.
4.AA/) 4.A/	8ee\L]	.
.	8dd\)	.
.	8cc#'\J	.
=91	=91	=91
16r	([4.ddd\	f
16D\LL	.	.
16E\	.	.
16F#\	.	.
32G\L	.	.
32A\	.	.
32B\	.	.
32c#\JJJ	.	.
4.d\	16ddd\LL]	.
.	16ccc#\	.
.	16bbn\	.
.	16aa\	.
.	32gg\L	.
.	32ff#\	.
.	32ee\	.
.	32dd\JJJ	.
=92	=92	=92
16r	([4.bb\)	.
16G\LL	.	.
16A\	.	.
16B\	.	.
32c#\L	.	.
32d\	.	.
32e\	.	.
32f#\JJJ	.	.
4.g\	16bb\LL]	.
.	16aa\	.
.	16gg\	.
.	16ff#\	.
.	32ee\L	.
.	32dd\	.
.	32cc#\	.
.	32b\JJJ	.
=93	=93	=93
16r	([4.aa\)	.
16D\LL	.	.
16E\	.	.
16F#\	.	.
32G\L	.	.
32A\	.	.
32B\	.	.
32c#\JJJ	.	.
4.d\	16aa\LL]	.
.	16gg\	.
.	16ff#\	.
.	16ee\	.
.	32dd\L	.
.	32cc#\	.
.	32b\	.
.	32a\JJJ	.
=94	=94	=94
*	*^	*
(4.GG/ 4.G/	8gg/L	(4.b\)	.
.	8ff#/	.	.
.	8ee/J	.	.
4.AA/) 4.A/	8dd/L	4.a\)	.
.	8ee/	.	.
.	8cc#'/J	.	.
*	*v	*v	*
=95	=95	=95
16r	([4.dd\	p
16DD/LL	.	.
16EE/	.	.
16FF#/	.	.
32GG/L	.	.
32AA/	.	.
32BB/	.	.
32C#/JJJ	.	.
4.D/	16dd/LL]	.
.	16cc#/	.
.	16b/	.
.	16a/	.
.	32g/L	.
.	32f#/	.
.	32e/	.
.	32d/JJJ	.
=96	=96	=96
16r	([4.b\)	.
16GG/LL	.	.
16AA/	.	.
16BB/	.	.
32C#/L	.	.
32D/	.	.
32E/	.	.
32F#/JJJ	.	.
4.G\	16b/LL]	.
.	16a/	.
.	16g/	.
.	16f#/	.
.	32e/L	.
.	32d/	.
.	32c#/	.
.	32B/JJJ	.
=97	=97	=97
16r	([4.a/)	.
16DD/LL	.	.
16EE/	.	.
16FF#/	.	.
32GG/L	.	.
32AA/	.	.
32BB/	.	.
32C#/JJJ	.	.
4.D/	16a/LL]	.
.	16g/	.
.	16f#/	.
.	16e/	.
.	32d/L	.
.	32c#/	.
.	32B/	.
.	32A/JJJ	.
=98	=98	=98
*	*^	*
(4.GGG/ 4.GG/	8g/L	4.B\	.
.	8f#/	.	.
.	8e/J	.	.
4.AAA/) 4.AA/	8d/L	4.A\)	.
.	8e/	.	.
.	8c#'/J	.	.
*	*v	*v	*
=99	=99	=99
[4.DD^/	8d'\L	f
.	(8ddd\	.
.	8aa\J)	.
8DD/L]	8ff#'\L	.
8FF#'/	8dd'\	.
8AA'/J	8a'\J	.
=100	=100	=100
8D'/	8f#'\L	.
[4DD^/	(8ddd\	.
.	8aa\J)	.
8DD/L]	8ff#'\L	.
8FF#'/	8dd'\	.
8AA'/J	8a'\J	.
=101	=101	=101
4.DD/ 4.D/	8d'/ 8f#'/L	.
.	8c#'/ 8e'/	.
.	8d'/ 8f#'/J	.
4GG/ 4G/	(8e/ 8g/L	.
.	8d/) 8f#/	.
8AA'/ 8A'/	8c#'/ 8e'/J	.
=102	=102	=102
4.DD/ 4.D/	8d'/	.
.	8gg'\L	.
.	8aa'\J	.
4.GG/ 4.G/	(8bb\L	.
.	8ff#\)	.
.	8gg'\J	.
=103	=103	=103
4FF#/ 4F#/	(8aa\L	.
.	8dd\)	.
8GG'/ 8G'/	8ff#\ 8aa\J	.
4AA/ 4A/	8ee'/ 8gg'/L	.
.	8dd'/ 8ff#'/	.
8AA'/	8cc#'/ 8ee'/J	.
=104	=104	=104
4.DD/ 4.D/	(8dd\L	.
.	8cc#\)	.
.	8dd'\J	.
4.GG/ 4.G/	(8ee\L	.
.	8b\)	.
.	8cc#'\J	.
=105	=105	=105
*	*^	*
4FF#/ 4F#/	[4.dd^/	8r	.
.	.	(8a\L	.
8GG'/ 8G'/	.	8b\J	.
4AA/ 4A/	4dd/]	8f#\L	.
.	.	8g\)	.
8GG'/ 8G'/	8cc#'/	8e'\J	.
=106	=106	=106	=106
4FF#/ 4F#/	[4.dd^/	8r	.
.	.	(8a\L	.
8GG'/ 8G'/	.	8b\J	.
4AA/ 4A/	4dd/]	8f#\L	.
.	.	8g\)	.
8GG'/ 8G'/	8cc#'/	8e'\J	.
=107	=107	=107	=107
4FF#/ 4F#/	[4.dd^/	8r	.
.	.	(8a\L	.
8GG'/ 8G'/	.	8b\J	.
4AA/ 4A/	4dd/]	8f#\L	.
.	.	8g\)	.
8AA'/ 8A'/	8cc#'/	8e'\J	.
*	*v	*v	*
=108	=108	=108
2.DD^/ 2.D^/	2.d^/ 2.dd^/	.
==:|!	==:|!	==:|!
*-	*-	*-
!!!ENC: Kelly Leistikow
!!!END: 2005/08/07/
!!!ONB: Translated to Humdrum by Craig Stuart Sapp 2005/08/07
